X:1
T:It Rains
M:2/4
L:1/8
K:G
 D| G2 GG| FA DA| Bd GB| A2 z D| dd BG| cc cc| BG d2-| d2| D2| G2 z2|\
 z2 z||
